extensions/content/explorer/asset/icons/help.svg

<?xml version="1.0" encoding="UTF-8" standalone="no"?>
<svg
   xmlns:dc="http://purl.org/dc/elements/1.1/"
   xmlns:cc="http://creativecommons.org/ns#"
   xmlns:rdf="http://www.w3.org/1999/02/22-rdf-syntax-ns#"
   xmlns:svg="http://www.w3.org/2000/svg"
   xmlns="http://www.w3.org/2000/svg"
   xmlns:sodipodi="http://sodipodi.sourceforge.net/DTD/sodipodi-0.dtd"
   xmlns:inkscape="http://www.inkscape.org/namespaces/inkscape"
   id="help"
   width="100%"
   height="100%"
   viewBox="0 0 16 16"
   xml:space="preserve">
   <defs
     id="defs11" /><sodipodi:namedview
     pagecolor="#ffffff"
     bordercolor="#666666"
     borderopacity="1"
     objecttolerance="10"
     gridtolerance="10"
     guidetolerance="10"
     inkscape:pageopacity="0"
     inkscape:pageshadow="2"
     inkscape:window-width="1237"
     inkscape:window-height="666"
     id="namedview9"
     showgrid="false"
     showguides="false"
     inkscape:zoom="3.7019608"
     inkscape:cx="-52.819915"
     inkscape:cy="-7.3936079"
     inkscape:window-x="0"
     inkscape:window-y="23"
     inkscape:window-maximized="0"
     inkscape:current-layer="help" /><g
     id="g3"
     fill="currentColor"
     transform="matrix(0.03137255,0,0,0.03137255,-2.5e-7,-2.5e-7)"><g
       id="g5"><path
         d="M 255,0 C 114.75,0 0,114.75 0,255 0,395.25 114.75,510 255,510 395.25,510 510,395.25 510,255 510,114.75 395.25,0 255,0 Z m -1.88281,73.316406 c 34.99349,0 62.9069,9.521485 83.74023,28.564454 20.83334,19.04297 31.25,42.07357 31.25,69.0918 0,15.625 -3.66211,30.02929 -10.98633,43.21289 -7.32421,13.18359 -21.64713,29.21549 -42.96875,48.0957 -14.32291,12.69531 -23.68164,22.05404 -28.07617,28.07617 -4.39453,6.02214 -7.64974,12.93946 -9.76562,20.75196 -2.11589,7.8125 -3.33659,20.50781 -3.66211,38.08593 l -42.23633,0 c -0.16276,-5.85937 -0.24414,-10.2539 -0.24414,-13.18359 0,-17.25261 2.44141,-32.14518 7.32422,-44.67774 3.58073,-9.4401 9.35872,-18.96158 17.33398,-28.56445 5.85938,-6.9987 16.35742,-17.17122 31.49414,-30.51758 15.29948,-13.50911 25.22787,-24.2513 29.78516,-32.22656 4.55729,-7.97526 6.83594,-16.68294 6.83594,-26.12305 0,-17.08984 -6.67318,-32.0638 -20.01953,-44.92187 -13.34636,-13.02083 -29.70378,-19.53125 -49.07227,-19.53125 -18.71745,0 -34.34245,5.85937 -46.875,17.57812 -12.53255,11.71875 -20.75195,30.0293 -24.6582,54.93164 l -45.16602,-5.37109 c 4.06901,-33.36588 16.11328,-58.91927 36.13281,-76.660156 20.18229,-17.740885 46.79362,-26.611328 79.83399,-26.611328 z m -25.39063,313.964844 50.04883,0 0,50.04883 -50.04883,0 0,-50.04883 z"
         id="path7"
         inkscape:connector-curvature="0" /></g></g></svg>

<?xml version="1.0" encoding="UTF-8" standalone="no"?>
<svg
   xmlns:dc="http://purl.org/dc/elements/1.1/"
   xmlns:cc="http://creativecommons.org/ns#"
   xmlns:rdf="http://www.w3.org/1999/02/22-rdf-syntax-ns#"
   xmlns:svg="http://www.w3.org/2000/svg"
   xmlns="http://www.w3.org/2000/svg"
   xmlns:sodipodi="http://sodipodi.sourceforge.net/DTD/sodipodi-0.dtd"
   xmlns:inkscape="http://www.inkscape.org/namespaces/inkscape"
   version="1.1"
   id="help"
   x="0px"
   y="0px"
   width="100%"
   height="100%"
   viewBox="0 0 510 510"
   style="enable-background:new 0 0 510 510;"
   xml:space="preserve"
   inkscape:version="0.91 r13725"
   sodipodi:docname="help.svg"><defs
     id="defs11" /><sodipodi:namedview
     pagecolor="#ffffff"
     bordercolor="#666666"
     borderopacity="1"
     objecttolerance="10"
     gridtolerance="10"
     guidetolerance="10"
     inkscape:pageopacity="0"
     inkscape:pageshadow="2"
     inkscape:window-width="1237"
     inkscape:window-height="666"
     id="namedview9"
     showgrid="false"
     showguides="false"
     inkscape:zoom="0.4627451"
     inkscape:cx="255"
     inkscape:cy="255"
     inkscape:window-x="0"
     inkscape:window-y="23"
     inkscape:window-maximized="0"
     inkscape:current-layer="play" /><g
     fill="currentColor"
     id="g3"><g
       id="g5"><path
         d="M 255 0 C 114.75 0 0 114.75 0 255 C 0 395.25 114.75 510 255 510 C 395.25 510 510 395.25 510 255 C 510 114.75 395.25 0 255 0 z M 253.11719 73.316406 C 288.11068 73.316406 316.02409 82.837891 336.85742 101.88086 C 357.69076 120.92383 368.10742 143.95443 368.10742 170.97266 C 368.10742 186.59766 364.44531 201.00195 357.12109 214.18555 C 349.79688 227.36914 335.47396 243.40104 314.15234 262.28125 C 299.82943 274.97656 290.4707 284.33529 286.07617 290.35742 C 281.68164 296.37956 278.42643 303.29688 276.31055 311.10938 C 274.19466 318.92188 272.97396 331.61719 272.64844 349.19531 L 230.41211 349.19531 C 230.24935 343.33594 230.16797 338.94141 230.16797 336.01172 C 230.16797 318.75911 232.60938 303.86654 237.49219 291.33398 C 241.07292 281.89388 246.85091 272.3724 254.82617 262.76953 C 260.68555 255.77083 271.18359 245.59831 286.32031 232.25195 C 301.61979 218.74284 311.54818 208.00065 316.10547 200.02539 C 320.66276 192.05013 322.94141 183.34245 322.94141 173.90234 C 322.94141 156.8125 316.26823 141.83854 302.92188 128.98047 C 289.57552 115.95964 273.2181 109.44922 253.84961 109.44922 C 235.13216 109.44922 219.50716 115.30859 206.97461 127.02734 C 194.44206 138.74609 186.22266 157.05664 182.31641 181.95898 L 137.15039 176.58789 C 141.2194 143.22201 153.26367 117.66862 173.2832 99.927734 C 193.46549 82.186849 220.07682 73.316406 253.11719 73.316406 z M 227.72656 387.28125 L 277.77539 387.28125 L 277.77539 437.33008 L 227.72656 437.33008 L 227.72656 387.28125 z "
         id="path7" /></g></g></svg>
